docs/science/organic/InDraw250714-1959.svg

<svg xmlns="http://www.w3.org/2000/svg" xmlns:xlink="http://www.w3.org/1999/xlink" width="1112" height="219" x="0" y="0" version="1.1" viewBox="264 400 1112 219"><g><g><rect width="1112" height="219" x="264" y="400" fill="none" stroke="none"/><rect width="1112" height="219" x="264" y="400" fill="none" fill-opacity="1" stroke="none"/><g><g><text x="344.019" y="526.737" fill="#000" stroke="none" dominant-baseline="alphabetic" font-family="Arial" font-size="35pt" font-style="normal" font-weight="normal" text-anchor="middle" text-decoration="normal" transform="scale(1,1)">C</text><text x="271.598" y="525.737" fill="#000" stroke="none" dominant-baseline="alphabetic" font-family="Arial" font-size="35pt" font-style="normal" font-weight="normal" text-anchor="start" text-decoration="normal" transform="scale(1,1)">H</text><text x="305.295" y="508.737" fill="#000" stroke="none" dominant-baseline="hanging" font-family="Arial" font-size="28pt" font-style="normal" font-weight="normal" text-anchor="start" text-decoration="normal" transform="scale(1,1)">3</text></g><g><text x="426.963" y="526.737" fill="#000" stroke="none" dominant-baseline="alphabetic" font-family="Arial" font-size="35pt" font-style="normal" font-weight="normal" text-anchor="middle" text-decoration="normal" transform="scale(1,1)">C</text></g><g><path fill="none" stroke="#111" stroke-linecap="round" stroke-linejoin="round" stroke-miterlimit="10" stroke-width="3.02" d="M 364.01853439999996 508.737024 L 407.9625344 508.737024" paint-order="fill stroke markers" transform="scale(1,1)"/></g><g><text x="426.963" y="609.681" fill="#000" stroke="none" dominant-baseline="alphabetic" font-family="Arial" font-size="35pt" font-style="normal" font-weight="normal" text-anchor="middle" text-decoration="normal" transform="scale(1,1)">O</text><text x="445.677" y="608.681" fill="#000" stroke="none" dominant-baseline="alphabetic" font-family="Arial" font-size="35pt" font-style="normal" font-weight="normal" text-anchor="start" text-decoration="normal" transform="scale(1,1)">H</text></g><g><path fill="none" stroke="#111" stroke-linecap="round" stroke-linejoin="round" stroke-miterlimit="10" stroke-width="3.02" d="M 426.9625344 530.5370240000001 L 426.9625344 569.881024" paint-order="fill stroke markers" transform="scale(1,1)"/></g><g><text x="509.907" y="526.737" fill="#000" stroke="none" dominant-baseline="alphabetic" font-family="Arial" font-size="35pt" font-style="normal" font-weight="normal" text-anchor="middle" text-decoration="normal" transform="scale(1,1)">C</text><text x="526.755" y="526.737" fill="#000" stroke="none" dominant-baseline="alphabetic" font-family="Arial" font-size="35pt" font-style="normal" font-weight="normal" text-anchor="start" text-decoration="normal" transform="scale(1,1)">OOH</text></g><g><path fill="none" stroke="#111" stroke-linecap="round" stroke-linejoin="round" stroke-miterlimit="10" stroke-width="3.02" d="M 446.9625344 508.737024 L 488.7593344 508.737024" paint-order="fill stroke markers" transform="scale(1,1)"/></g><g><text x="426.963" y="442.793" fill="#000" stroke="none" dominant-baseline="alphabetic" font-family="Arial" font-size="35pt" font-style="normal" font-weight="normal" text-anchor="middle" text-decoration="normal" transform="scale(1,1)">H</text></g><g><path fill="none" stroke="#111" stroke-linecap="round" stroke-linejoin="round" stroke-miterlimit="10" stroke-width="3.02" d="M 426.9625344 486.937024 L 426.9625344 446.493024" paint-order="fill stroke markers" transform="scale(1,1)"/></g><g><text x="1211.356" y="525.626" fill="#000" stroke="none" dominant-baseline="alphabetic" font-family="Arial" font-size="35pt" font-style="normal" font-weight="normal" text-anchor="middle" text-decoration="normal" transform="scale(1,1)">C</text></g><g><text x="1159.847" y="602.846" fill="#000" stroke="none" dominant-baseline="alphabetic" font-family="Arial" font-size="35pt" font-style="normal" font-weight="normal" text-anchor="middle" text-decoration="normal" transform="scale(1,1)">O</text></g><g><path fill="none" stroke="#111" stroke-linecap="round" stroke-linejoin="round" stroke-miterlimit="10" stroke-width="3.02" d="M 1197.0387460736792 529.0893999932441 L 1174.1643259263208 563.382612806756" paint-order="fill stroke markers" transform="scale(1,1)"/></g><g><text x="1257.149" y="605.7" fill="#000" stroke="none" dominant-baseline="alphabetic" font-family="Arial" font-size="35pt" font-style="normal" font-weight="normal" text-anchor="middle" text-decoration="normal" transform="scale(1,1)">C</text></g><g><path fill="none" stroke="#111" stroke-linecap="round" stroke-linejoin="round" stroke-miterlimit="10" stroke-width="3.02" d="M 1223.6718947470715 529.1617175074496 L 1244.8327836529284 566.1635688925505" paint-order="fill stroke markers" transform="scale(1,1)"/></g><g><path fill="none" stroke="#111" stroke-linecap="round" stroke-linejoin="round" stroke-miterlimit="10" stroke-width="3.02" d="M 1181.3465646564152 585.4768794865064 L 1238.1498897435847 587.1425809467388" paint-order="fill stroke markers" transform="scale(1,1)"/></g><g><text x="1262.781" y="448.823" fill="#000" stroke="none" dominant-baseline="alphabetic" font-family="Arial" font-size="35pt" font-style="normal" font-weight="normal" text-anchor="middle" text-decoration="normal" transform="scale(1,1)">H</text></g><g><path fill="none" stroke="#111" stroke-linecap="round" stroke-linejoin="round" stroke-miterlimit="10" stroke-width="3.02" d="M 1225.9110111088091 486.1704996497732 L 1248.9718172163907 452.1781275502268" paint-order="fill stroke markers" transform="scale(1,1)"/></g><g><text x="1348.902" y="606.853" fill="#000" stroke="none" dominant-baseline="alphabetic" font-family="Arial" font-size="35pt" font-style="normal" font-weight="normal" text-anchor="middle" text-decoration="normal" transform="scale(1,1)">O</text></g><g><path fill="none" stroke="#111" stroke-linecap="round" stroke-linejoin="round" stroke-miterlimit="10" stroke-width="3.02" d="M 1277.0863406329272 592.9274798038022 L 1328.339309181112 593.5715010140894 M 1277.211404418888 582.9745618160679 L 1328.4643729670727 583.6185830263552" paint-order="fill stroke markers" transform="scale(1,1)"/></g><g><text x="1155.634" y="447.716" fill="#000" stroke="none" dominant-baseline="alphabetic" font-family="Arial" font-size="35pt" font-style="normal" font-weight="normal" text-anchor="middle" text-decoration="normal" transform="scale(1,1)">C</text><text x="1083.214" y="446.716" fill="#000" stroke="none" dominant-baseline="alphabetic" font-family="Arial" font-size="35pt" font-style="normal" font-weight="normal" text-anchor="start" text-decoration="normal" transform="scale(1,1)">H</text><text x="1116.91" y="429.716" fill="#000" stroke="none" dominant-baseline="hanging" font-family="Arial" font-size="28pt" font-style="normal" font-weight="normal" text-anchor="start" text-decoration="normal" transform="scale(1,1)">3</text></g><g><path fill="none" stroke="#111" stroke-linecap="round" stroke-linejoin="round" stroke-miterlimit="10" stroke-width="3.02" d="M 1196.030946046194 486.1988215789074 L 1174.797344308581 456.5103397210033" paint-order="fill stroke markers" transform="scale(1,1)"/></g><g><path fill="none" stroke="#000" stroke-miterlimit="10" stroke-width=".309" d="M 703.9652073022236 509.28571428571433 L 999.4532073022235 509.28571428571433" paint-order="fill stroke markers" transform="scale(1,1)"/></g><g><path fill="#000" stroke="#000" stroke-miterlimit="10" stroke-width=".309" d="M 999.4532073022235 509.28571428571433 L 995.8616267476486 503.06491428571434 L 1015.0052073022235 509.28571428571433 L 995.8616267476486 515.5065142857144 Z" paint-order="stroke fill markers" transform="scale(1,1)"/></g></g></g></g></svg>

<svg xmlns="http://www.w3.org/2000/svg" viewBox="264 400 1112 219" xmlns:xlink="http://www.w3.org/1999/xlink"><defs><path fill="none" d="M264 400h1112v219H264z" id="a"/></defs><use href="#a"/><use href="#a"/><text x="344.02" y="526.74" dominant-baseline="alphabetic" font-family="Arial" font-size="35pt" text-anchor="middle" text-decoration="normal">C</text><text x="271.6" y="525.74" dominant-baseline="alphabetic" font-family="Arial" font-size="35pt" text-decoration="normal">H</text><text x="305.3" y="508.74" dominant-baseline="hanging" font-family="Arial" font-size="28pt" text-decoration="normal">3</text><text x="426.96" y="526.74" dominant-baseline="alphabetic" font-family="Arial" font-size="35pt" text-anchor="middle" text-decoration="normal">C</text><path fill="none" stroke="#111" stroke-linecap="round" stroke-linejoin="round" stroke-miterlimit="10" stroke-width="3.02" d="M364.019 508.737h43.944" paint-order="fill stroke markers"/><text x="426.96" y="609.68" dominant-baseline="alphabetic" font-family="Arial" font-size="35pt" text-anchor="middle" text-decoration="normal">O</text><text x="445.68" y="608.68" dominant-baseline="alphabetic" font-family="Arial" font-size="35pt" text-decoration="normal">H</text><path fill="none" stroke="#111" stroke-linecap="round" stroke-linejoin="round" stroke-miterlimit="10" stroke-width="3.02" d="M426.963 530.537v39.344" paint-order="fill stroke markers"/><text x="509.91" y="526.74" dominant-baseline="alphabetic" font-family="Arial" font-size="35pt" text-anchor="middle" text-decoration="normal">C</text><text x="526.75" y="526.74" dominant-baseline="alphabetic" font-family="Arial" font-size="35pt" text-decoration="normal">OOH</text><path fill="none" stroke="#111" stroke-linecap="round" stroke-linejoin="round" stroke-miterlimit="10" stroke-width="3.02" d="M446.963 508.737h41.796" paint-order="fill stroke markers"/><text x="426.96" y="442.79" dominant-baseline="alphabetic" font-family="Arial" font-size="35pt" text-anchor="middle" text-decoration="normal">H</text><path fill="none" stroke="#111" stroke-linecap="round" stroke-linejoin="round" stroke-miterlimit="10" stroke-width="3.02" d="M426.963 486.937v-40.444" paint-order="fill stroke markers"/><text x="1211.36" y="525.63" dominant-baseline="alphabetic" font-family="Arial" font-size="35pt" text-anchor="middle" text-decoration="normal">C</text><text x="1159.85" y="602.85" dominant-baseline="alphabetic" font-family="Arial" font-size="35pt" text-anchor="middle" text-decoration="normal">O</text><text x="1257.15" y="605.7" dominant-baseline="alphabetic" font-family="Arial" font-size="35pt" text-anchor="middle" text-decoration="normal">C</text><text x="1262.78" y="448.82" dominant-baseline="alphabetic" font-family="Arial" font-size="35pt" text-anchor="middle" text-decoration="normal">H</text><text x="1348.9" y="606.85" dominant-baseline="alphabetic" font-family="Arial" font-size="35pt" text-anchor="middle" text-decoration="normal">O</text><text x="1155.63" y="447.72" dominant-baseline="alphabetic" font-family="Arial" font-size="35pt" text-anchor="middle" text-decoration="normal">C</text><text x="1083.21" y="446.72" dominant-baseline="alphabetic" font-family="Arial" font-size="35pt" text-decoration="normal">H</text><text x="1116.91" y="429.72" dominant-baseline="hanging" font-family="Arial" font-size="28pt" text-decoration="normal">3</text><path fill="none" stroke="#000" stroke-miterlimit="10" stroke-width="0.31" d="M703.965 509.286h295.488" paint-order="fill stroke markers"/><path stroke="#000" stroke-miterlimit="10" stroke-width="0.31" d="m999.453 509.286-3.591-6.221 19.143 6.22-19.143 6.222Z" paint-order="stroke fill markers"/></svg>
